pictures/Vector.svg

<svg width="21" height="20" viewBox="0 0 21 20" fill="none" xmlns="http://www.w3.org/2000/svg">
<mask id="path-1-inside-1_1_7" fill="white">
<path d="M18.2689 18.3891L18.4148 18.7368L18.7918 18.7417L20.4667 18.7631V19.5083H14.9083V18.7634L16.6978 18.7417L17.5514 18.7312L17.221 17.9441L11.0316 3.19869C10.8028 2.63513 10.4198 2.18724 9.92817 1.84426C9.42274 1.49163 8.83893 1.3 8.20959 1.3C7.3587 1.3 6.61845 1.62556 6.02616 2.22946C5.43299 2.83426 5.13334 3.563 5.13334 4.405V7.625V8.2H5.70834H7.62501C8.23695 8.2 8.77395 8.3619 9.23846 8.65022L9.24689 8.65549L9.25552 8.66038C9.75845 8.94894 10.1502 9.32786 10.4305 9.82437C10.7244 10.345 10.8833 10.881 10.8833 11.4583V19.5083H7.68608C7.80381 19.2709 7.90281 19.0241 7.982 18.7704H9.54167H10.1167V18.1954V11.4583C10.1167 10.8084 9.8906 10.2066 9.39936 9.72662C8.91904 9.24755 8.32357 8.99542 7.62501 8.99542H2.83334H2.25834V9.57042V11.9014C2.00839 11.9285 1.76221 11.9736 1.52042 12.0367V8.2H3.82042H4.40058L4.3954 7.61986L4.36667 4.40251C4.3671 3.70274 4.54961 3.05613 4.89158 2.47227C5.23631 1.8837 5.70448 1.40746 6.29168 1.05515C6.87046 0.707864 7.50564 0.533333 8.20959 0.533333C8.99715 0.533333 9.6998 0.749006 10.3323 1.17327C10.9797 1.6107 11.4536 2.17637 11.7639 2.8785L18.2689 18.3891ZM4.36667 17.2083C4.36667 16.3637 3.67799 15.675 2.83334 15.675C1.98869 15.675 1.30001 16.3637 1.30001 17.2083C1.30001 18.053 1.98869 18.7417 2.83334 18.7417C3.67799 18.7417 4.36667 18.053 4.36667 17.2083ZM0.53334 17.2083C0.53334 15.9351 1.56007 14.9083 2.83334 14.9083C4.10661 14.9083 5.13334 15.9351 5.13334 17.2083C5.13334 18.4816 4.10661 19.5083 2.83334 19.5083C1.56007 19.5083 0.53334 18.4816 0.53334 17.2083Z"/>
</mask>
<path d="M18.2689 18.3891L18.4148 18.7368L18.7918 18.7417L20.4667 18.7631V19.5083H14.9083V18.7634L16.6978 18.7417L17.5514 18.7312L17.221 17.9441L11.0316 3.19869C10.8028 2.63513 10.4198 2.18724 9.92817 1.84426C9.42274 1.49163 8.83893 1.3 8.20959 1.3C7.3587 1.3 6.61845 1.62556 6.02616 2.22946C5.43299 2.83426 5.13334 3.563 5.13334 4.405V7.625V8.2H5.70834H7.62501C8.23695 8.2 8.77395 8.3619 9.23846 8.65022L9.24689 8.65549L9.25552 8.66038C9.75845 8.94894 10.1502 9.32786 10.4305 9.82437C10.7244 10.345 10.8833 10.881 10.8833 11.4583V19.5083H7.68608C7.80381 19.2709 7.90281 19.0241 7.982 18.7704H9.54167H10.1167V18.1954V11.4583C10.1167 10.8084 9.8906 10.2066 9.39936 9.72662C8.91904 9.24755 8.32357 8.99542 7.62501 8.99542H2.83334H2.25834V9.57042V11.9014C2.00839 11.9285 1.76221 11.9736 1.52042 12.0367V8.2H3.82042H4.40058L4.3954 7.61986L4.36667 4.40251C4.3671 3.70274 4.54961 3.05613 4.89158 2.47227C5.23631 1.8837 5.70448 1.40746 6.29168 1.05515C6.87046 0.707864 7.50564 0.533333 8.20959 0.533333C8.99715 0.533333 9.6998 0.749006 10.3323 1.17327C10.9797 1.6107 11.4536 2.17637 11.7639 2.8785L18.2689 18.3891ZM4.36667 17.2083C4.36667 16.3637 3.67799 15.675 2.83334 15.675C1.98869 15.675 1.30001 16.3637 1.30001 17.2083C1.30001 18.053 1.98869 18.7417 2.83334 18.7417C3.67799 18.7417 4.36667 18.053 4.36667 17.2083ZM0.53334 17.2083C0.53334 15.9351 1.56007 14.9083 2.83334 14.9083C4.10661 14.9083 5.13334 15.9351 5.13334 17.2083C5.13334 18.4816 4.10661 19.5083 2.83334 19.5083C1.56007 19.5083 0.53334 18.4816 0.53334 17.2083Z" fill="#D92E15"/>
<path d="M18.2689 18.3891L17.1623 18.8532L17.1624 18.8533L18.2689 18.3891ZM18.4148 18.7368L17.3082 19.201L17.6126 19.9265L18.3992 19.9367L18.4148 18.7368ZM18.7918 18.7417L18.7762 19.9416L18.7764 19.9416L18.7918 18.7417ZM20.4667 18.7631H21.6667V17.5784L20.4821 17.5632L20.4667 18.7631ZM20.4667 19.5083V20.7083H21.6667V19.5083H20.4667ZM14.9083 19.5083H13.7083V20.7083H14.9083V19.5083ZM14.9083 18.7634L14.8938 17.5635L13.7083 17.5779V18.7634H14.9083ZM16.6978 18.7417L16.7124 19.9416L16.7125 19.9416L16.6978 18.7417ZM17.5514 18.7312L17.5661 19.9311L19.3475 19.9093L18.6579 18.2667L17.5514 18.7312ZM17.221 17.9441L16.1145 18.4086L16.1145 18.4086L17.221 17.9441ZM11.0316 3.19869L9.9197 3.65002L9.92237 3.65659L9.92512 3.66313L11.0316 3.19869ZM9.92817 1.84426L9.24154 2.8284L9.24156 2.82841L9.92817 1.84426ZM6.02616 2.22946L5.16944 1.3892L5.16943 1.38921L6.02616 2.22946ZM5.13334 8.2H3.93334V9.4H5.13334V8.2ZM9.23846 8.65022L9.87439 7.63258L9.87131 7.63067L9.23846 8.65022ZM9.24689 8.65549L8.61096 9.67314L8.63283 9.6868L8.65527 9.69952L9.24689 8.65549ZM9.25552 8.66038L9.8527 7.61951L9.84714 7.61636L9.25552 8.66038ZM10.4305 9.82437L11.4755 9.23446L11.4755 9.23442L10.4305 9.82437ZM10.8833 19.5083V20.7083H12.0833V19.5083H10.8833ZM7.68608 19.5083L6.61095 18.9753L5.75179 20.7083H7.68608V19.5083ZM7.982 18.7704V17.5704H7.09948L6.83651 18.4128L7.982 18.7704ZM10.1167 18.7704V19.9704H11.3167V18.7704H10.1167ZM9.39936 9.72662L8.55189 10.5763L8.56077 10.585L9.39936 9.72662ZM2.25834 8.99542V7.79542H1.05834V8.99542H2.25834ZM2.25834 11.9014L2.38779 13.0944L3.45834 12.9782V11.9014H2.25834ZM1.52042 12.0367H0.320424V13.5898L1.82326 13.1978L1.52042 12.0367ZM1.52042 8.2V7H0.320424V8.2H1.52042ZM4.40058 8.2V9.4H5.61133L5.60053 8.1893L4.40058 8.2ZM4.3954 7.61986L5.59536 7.60916L5.59536 7.60915L4.3954 7.61986ZM4.36667 4.40251L3.16662 4.40177L3.16672 4.41322L4.36667 4.40251ZM4.89158 2.47227L5.92704 3.07875L5.92704 3.07875L4.89158 2.47227ZM6.29168 1.05515L6.90906 2.08414L6.90909 2.08413L6.29168 1.05515ZM10.3323 1.17327L11.0041 0.178932L11.0008 0.176702L10.3323 1.17327ZM11.7639 2.8785L12.8705 2.41439L12.8661 2.40392L12.8615 2.39354L11.7639 2.8785ZM17.1624 18.8533L17.3082 19.201L19.5214 18.2726L19.3755 17.9249L17.1624 18.8533ZM18.3992 19.9367L18.7762 19.9416L18.8073 17.5418L18.4303 17.5369L18.3992 19.9367ZM18.7764 19.9416L20.4513 19.963L20.4821 17.5632L18.8072 17.5418L18.7764 19.9416ZM19.2667 18.7631V19.5083H21.6667V18.7631H19.2667ZM20.4667 18.3083H14.9083V20.7083H20.4667V18.3083ZM16.1083 19.5083V18.7634H13.7083V19.5083H16.1083ZM14.9229 19.9633L16.7124 19.9416L16.6832 17.5418L14.8938 17.5635L14.9229 19.9633ZM16.7125 19.9416L17.5661 19.9311L17.5367 17.5313L16.6832 17.5418L16.7125 19.9416ZM18.6579 18.2667L18.3274 17.4796L16.1145 18.4086L16.445 19.1957L18.6579 18.2667ZM18.3275 17.4797L12.1381 2.73424L9.92512 3.66313L16.1145 18.4086L18.3275 17.4797ZM12.1435 2.74736C11.8177 1.94469 11.2742 1.32012 10.6148 0.860097L9.24156 2.82841C9.56543 3.05437 9.78801 3.32557 9.9197 3.65002L12.1435 2.74736ZM10.6148 0.860109C9.91458 0.371581 9.09244 0.0999995 8.20959 0.0999995V2.5C8.58542 2.5 8.93091 2.61168 9.24154 2.8284L10.6148 0.860109ZM8.20959 0.0999995C7.02279 0.0999995 5.97769 0.56512 5.16944 1.3892L6.88288 3.06971C7.25921 2.68601 7.69462 2.5 8.20959 2.5V0.0999995ZM5.16943 1.38921C4.35838 2.21617 3.93334 3.24574 3.93334 4.405H6.33334C6.33334 3.88026 6.50761 3.45235 6.88289 3.06971L5.16943 1.38921ZM3.93334 4.405V7.625H6.33334V4.405H3.93334ZM3.93334 7.625V8.2H6.33334V7.625H3.93334ZM5.13334 9.4H5.70834V7H5.13334V9.4ZM5.70834 9.4H7.62501V7H5.70834V9.4ZM7.62501 9.4C8.01404 9.4 8.33174 9.49979 8.6056 9.66978L9.87131 7.63067C9.21617 7.22401 8.45986 7 7.62501 7V9.4ZM8.60253 9.66787L8.61096 9.67314L9.88282 7.63785L9.87438 7.63258L8.60253 9.66787ZM8.65527 9.69952L8.66389 9.70441L9.84714 7.61636L9.83851 7.61147L8.65527 9.69952ZM8.65833 9.70124C8.99055 9.89184 9.22018 10.1214 9.38556 10.4143L11.4755 9.23442C11.0803 8.53433 10.5263 8.00603 9.8527 7.61953L8.65833 9.70124ZM9.38554 10.4143C9.59282 10.7815 9.68334 11.1162 9.68334 11.4583H12.0833C12.0833 10.6459 11.8561 9.90861 11.4755 9.23446L9.38554 10.4143ZM9.68334 11.4583V19.5083H12.0833V11.4583H9.68334ZM10.8833 18.3083H7.68608V20.7083H10.8833V18.3083ZM8.76121 20.0413C8.90697 19.7473 9.02949 19.4419 9.12748 19.128L6.83651 18.4128C6.77612 18.6063 6.70065 18.7944 6.61095 18.9753L8.76121 20.0413ZM7.982 19.9704H9.54167V17.5704H7.982V19.9704ZM9.54167 19.9704H10.1167V17.5704H9.54167V19.9704ZM11.3167 18.7704V18.1954H8.91667V18.7704H11.3167ZM11.3167 18.1954V11.4583H8.91667V18.1954H11.3167ZM11.3167 11.4583C11.3167 10.5106 10.9778 9.5911 10.238 8.86827L8.56077 10.585C8.8034 10.822 8.91667 11.1062 8.91667 11.4583H11.3167ZM10.2468 8.87699C9.54308 8.17511 8.6435 7.79542 7.62501 7.79542V10.1954C8.00365 10.1954 8.29501 10.32 8.55194 10.5763L10.2468 8.87699ZM7.62501 7.79542H2.83334V10.1954H7.62501V7.79542ZM2.83334 7.79542H2.25834V10.1954H2.83334V7.79542ZM1.05834 8.99542V9.57042H3.45834V8.99542H1.05834ZM1.05834 9.57042V11.9014H3.45834V9.57042H1.05834ZM2.1289 10.7084C1.82083 10.7418 1.51669 10.7975 1.21759 10.8755L1.82326 13.1978C2.00773 13.1497 2.19594 13.1152 2.38779 13.0944L2.1289 10.7084ZM2.72042 12.0367V8.2H0.320424V12.0367H2.72042ZM1.52042 9.4H3.82042V7H1.52042V9.4ZM3.82042 9.4H4.40058V7H3.82042V9.4ZM5.60053 8.1893L5.59536 7.60916L3.19545 7.63057L3.20063 8.2107L5.60053 8.1893ZM5.59536 7.60915L5.56663 4.39179L3.16672 4.41322L3.19545 7.63058L5.59536 7.60915ZM5.56667 4.40325C5.56697 3.92086 5.69042 3.48274 5.92704 3.07875L3.85612 1.86579C3.4088 2.62951 3.16724 3.48462 3.16667 4.40177L5.56667 4.40325ZM5.92704 3.07875C6.17122 2.66186 6.49642 2.33172 6.90906 2.08414L5.67429 0.0261479C4.91254 0.48319 4.30141 1.10554 3.85612 1.86579L5.92704 3.07875ZM6.90909 2.08413C7.29579 1.8521 7.71654 1.73333 8.20959 1.73333V-0.666667C7.29474 -0.666667 6.44514 -0.43637 5.67427 0.0261613L6.90909 2.08413ZM8.20959 1.73333C8.76137 1.73333 9.23093 1.87946 9.66383 2.16984L11.0008 0.176702C10.1687 -0.381452 9.23293 -0.666667 8.20959 -0.666667V1.73333ZM9.66051 2.1676C10.1234 2.48035 10.4484 2.87051 10.6662 3.36345L12.8615 2.39354C12.4589 1.48222 11.8361 0.741053 11.0041 0.178938L9.66051 2.1676ZM10.6572 3.34261L17.1623 18.8532L19.3755 17.925L12.8705 2.41439L10.6572 3.34261ZM5.56667 17.2083C5.56667 15.7009 4.34071 14.475 2.83334 14.475V16.875C3.01526 16.875 3.16667 17.0264 3.16667 17.2083H5.56667ZM2.83334 14.475C1.32597 14.475 0.100007 15.7009 0.100007 17.2083H2.50001C2.50001 17.0264 2.65142 16.875 2.83334 16.875V14.475ZM0.100007 17.2083C0.100007 18.7158 1.32597 19.9417 2.83334 19.9417V17.5417C2.65142 17.5417 2.50001 17.3903 2.50001 17.2083H0.100007ZM2.83334 19.9417C4.34071 19.9417 5.56667 18.7158 5.56667 17.2083H3.16667C3.16667 17.3903 3.01526 17.5417 2.83334 17.5417V19.9417ZM1.73334 17.2083C1.73334 16.5978 2.22282 16.1083 2.83334 16.1083V13.7083C0.897319 13.7083 -0.66666 15.2724 -0.66666 17.2083H1.73334ZM2.83334 16.1083C3.44386 16.1083 3.93334 16.5978 3.93334 17.2083H6.33334C6.33334 15.2724 4.76936 13.7083 2.83334 13.7083V16.1083ZM3.93334 17.2083C3.93334 17.8188 3.44386 18.3083 2.83334 18.3083V20.7083C4.76936 20.7083 6.33334 19.1443 6.33334 17.2083H3.93334ZM2.83334 18.3083C2.22282 18.3083 1.73334 17.8188 1.73334 17.2083H-0.66666C-0.66666 19.1443 0.897319 20.7083 2.83334 20.7083V18.3083Z" fill="#D92E15" mask="url(#path-1-inside-1_1_7)"/>
</svg>

<svg width="21" height="20" fill="none" xmlns="http://www.w3.org/2000/svg"><mask id="a" fill="#fff"><path d="m18.269 18.39.146.347.377.005 1.675.021v.745h-5.559v-.745l1.79-.021.853-.01-.33-.788L11.031 3.2a3.03 3.03 0 0 0-1.103-1.355A2.97 2.97 0 0 0 8.21 1.3c-.851 0-1.592.326-2.184.93a3.005 3.005 0 0 0-.893 2.175V8.2h2.492c.612 0 1.149.162 1.613.45l.009.005.009.005c.502.289.894.668 1.175 1.164.293.521.452 1.057.452 1.634v8.05H7.686c.118-.237.217-.484.296-.738h2.135v-7.312c0-.65-.226-1.251-.718-1.731a2.432 2.432 0 0 0-1.774-.732H2.258V11.901c-.25.027-.496.073-.738.136V8.2H4.4l-.005-.58-.028-3.217c0-.7.183-1.347.525-1.93a3.971 3.971 0 0 1 1.4-1.418A3.647 3.647 0 0 1 8.21.533c.787 0 1.49.216 2.122.64a3.938 3.938 0 0 1 1.432 1.705l6.505 15.511ZM4.367 17.207c0-.844-.689-1.533-1.534-1.533-.844 0-1.533.689-1.533 1.533 0 .845.689 1.534 1.533 1.534.845 0 1.534-.689 1.534-1.534Zm-3.834 0c0-1.273 1.027-2.3 2.3-2.3 1.274 0 2.3 1.027 2.3 2.3 0 1.274-1.026 2.3-2.3 2.3a2.296 2.296 0 0 1-2.3-2.3Z"/></mask><path d="m18.269 18.39.146.347.377.005 1.675.021v.745h-5.559v-.745l1.79-.021.853-.01-.33-.788L11.031 3.2a3.03 3.03 0 0 0-1.103-1.355A2.97 2.97 0 0 0 8.21 1.3c-.851 0-1.592.326-2.184.93a3.005 3.005 0 0 0-.893 2.175V8.2h2.492c.612 0 1.149.162 1.613.45l.009.005.009.005c.502.289.894.668 1.175 1.164.293.521.452 1.057.452 1.634v8.05H7.686c.118-.237.217-.484.296-.738h2.135v-7.312c0-.65-.226-1.251-.718-1.731a2.432 2.432 0 0 0-1.774-.732H2.258V11.901c-.25.027-.496.073-.738.136V8.2H4.4l-.005-.58-.028-3.217c0-.7.183-1.347.525-1.93a3.971 3.971 0 0 1 1.4-1.418A3.647 3.647 0 0 1 8.21.533c.787 0 1.49.216 2.122.64a3.938 3.938 0 0 1 1.432 1.705l6.505 15.511ZM4.367 17.207c0-.844-.689-1.533-1.534-1.533-.844 0-1.533.689-1.533 1.533 0 .845.689 1.534 1.533 1.534.845 0 1.534-.689 1.534-1.534Zm-3.834 0c0-1.273 1.027-2.3 2.3-2.3 1.274 0 2.3 1.027 2.3 2.3 0 1.274-1.026 2.3-2.3 2.3a2.296 2.296 0 0 1-2.3-2.3Z" fill="#D92E15"/><path d="m18.269 18.39-1.107.463 1.107-.464Zm.146.347-1.107.464.305.726.786.01.016-1.2Zm.377.005-.016 1.2.016-1.2Zm1.675.021h1.2v-1.185l-1.185-.015-.015 1.2Zm0 .745v1.2h1.2v-1.2h-1.2Zm-5.559 0h-1.2v1.2h1.2v-1.2Zm0-.745-.014-1.2-1.186.015v1.185h1.2Zm1.79-.021.014 1.2-.014-1.2Zm.853-.01.015 1.2 1.782-.023-.69-1.642-1.107.464Zm-.33-.788-1.107.465 1.107-.465ZM11.031 3.2 9.92 3.65l.002.007.003.006 1.107-.464ZM9.929 1.844l-.686.984.686-.984Zm-3.902.385-.857-.84.857.84ZM5.133 8.2h-1.2v1.2h1.2V8.2Zm4.105.45.636-1.017-.003-.002-.633 1.02Zm.009.005L8.61 9.673l.022.014.022.013.592-1.045Zm.009.005.597-1.04-.006-.004-.591 1.044Zm1.175 1.164 1.045-.59-1.046.59Zm.452 9.684v1.2h1.2v-1.2h-1.2Zm-3.197 0-1.075-.533-.86 1.733h1.935v-1.2Zm.296-.738v-1.2h-.883l-.262.843 1.145.357Zm2.135 0v1.2h1.2v-1.2h-1.2Zm-.718-9.043-.847.85.009.008.838-.858Zm-7.14-.732v-1.2h-1.2v1.2h1.2Zm0 2.906.129 1.193 1.07-.116v-1.077h-1.2Zm-.739.136H.32v1.553l1.503-.392-.303-1.161Zm0-3.837V7H.32v1.2h1.2Zm2.88 0v1.2h1.211l-.01-1.21-1.2.01Zm-.005-.58 1.2-.01-1.2.01Zm-.028-3.217-1.2-.001v.011l1.2-.01Zm.525-1.93 1.035.606-1.035-.607Zm1.4-1.418.617 1.03-.617-1.03Zm4.04.118.672-.994-.003-.002-.669.996Zm1.432 1.705 1.107-.464-.005-.01-.005-.01-1.097.484Zm5.398 15.975.146.348 2.213-.928-.146-.348-2.213.928Zm1.237 1.084.377.005.031-2.4-.377-.005-.03 2.4Zm.377.005 1.675.021.031-2.4-1.675-.021-.03 2.4Zm.49-1.179v.745h2.4v-.745h-2.4Zm1.2-.455h-5.558v2.4h5.559v-2.4Zm-4.358 1.2v-.745h-2.4v.745h2.4Zm-1.185.455 1.79-.021-.03-2.4-1.79.021.03 2.4Zm1.79-.021.853-.01-.03-2.4-.853.01.03 2.4Zm1.945-1.675-.33-.787-2.213.929.33.787 2.213-.93Zm-.33-.787-6.19-14.746-2.213.93 6.19 14.745 2.213-.93ZM12.143 2.747A4.228 4.228 0 0 0 10.614.86L9.243 2.828c.323.226.546.498.678.822l2.223-.903ZM10.614.86A4.17 4.17 0 0 0 8.21.1v2.4c.375 0 .72.112 1.032.328L10.615.86ZM8.21.1C7.023.1 5.978.565 5.17 1.39l1.713 1.68c.376-.384.812-.57 1.327-.57V.1ZM5.17 1.39a4.204 4.204 0 0 0-1.237 3.015h2.4c0-.525.175-.953.55-1.335L5.169 1.39ZM3.932 4.404v3.22h2.4v-3.22h-2.4Zm0 3.22V8.2h2.4v-.575h-2.4Zm1.2 1.775h.575V7h-.575v2.4Zm.575 0h1.917V7H5.708v2.4Zm1.917 0c.389 0 .707.1.98.27l1.266-2.04A4.204 4.204 0 0 0 7.625 7v2.4Zm.978.268.008.005 1.272-2.035-.009-.005-1.271 2.035Zm.052.032.009.004 1.183-2.088-.008-.005L8.655 9.7Zm.003.001c.333.19.562.42.728.713l2.09-1.18A4.251 4.251 0 0 0 9.853 7.62L8.658 9.7Zm.728.713c.207.367.297.702.297 1.044h2.4c0-.812-.227-1.55-.607-2.224l-2.09 1.18Zm.297 1.044v8.05h2.4v-8.05h-2.4Zm1.2 6.85H7.686v2.4h3.197v-2.4Zm-2.122 1.733c.146-.294.268-.6.366-.913l-2.29-.715c-.06.193-.136.381-.226.562l2.15 1.066Zm-.779-.07h1.56v-2.4h-1.56v2.4Zm1.56 0h.575v-2.4h-.575v2.4Zm1.775-1.2v-.576h-2.4v.575h2.4Zm0-.576v-6.737h-2.4v6.737h2.4Zm0-6.737c0-.947-.34-1.867-1.079-2.59l-1.677 1.717c.242.237.356.521.356.873h2.4Zm-1.07-2.581a3.631 3.631 0 0 0-2.622-1.082v2.4c.379 0 .67.125.927.381l1.695-1.699ZM7.625 7.795H2.833v2.4h4.792v-2.4Zm-4.792 0h-.575v2.4h.575v-2.4Zm-1.775 1.2v.575h2.4v-.575h-2.4Zm0 .575v2.331h2.4v-2.33h-2.4Zm1.07 1.138a6.3 6.3 0 0 0-.91.168l.605 2.322c.185-.048.373-.083.565-.104l-.26-2.386Zm.592 1.329V8.2H.32v3.837h2.4ZM1.52 9.4h2.3V7h-2.3v2.4Zm2.3 0h.58V7h-.58v2.4ZM5.6 8.19l-.005-.58-2.4.02.006.58 2.4-.02Zm-.005-.58-.028-3.218-2.4.021.028 3.218 2.4-.022Zm-.028-3.207c0-.482.123-.92.36-1.324l-2.07-1.213a4.972 4.972 0 0 0-.69 2.536l2.4.001Zm.36-1.324c.244-.417.57-.747.982-.995L5.674.026a5.17 5.17 0 0 0-1.818 1.84l2.071 1.213Zm.982-.995c.387-.232.808-.35 1.3-.35v-2.4c-.914 0-1.764.23-2.535.692L6.91 2.084Zm1.3-.35c.552 0 1.022.145 1.455.436L11 .177A4.917 4.917 0 0 0 8.21-.667v2.4Zm1.452.434c.462.312.787.703 1.005 1.195l2.195-.97A5.136 5.136 0 0 0 11.005.18L9.661 2.168Zm.996 1.175 6.505 15.51 2.213-.928-6.505-15.51-2.213.928Zm-5.09 13.865a2.736 2.736 0 0 0-2.734-2.733v2.4c.182 0 .334.151.334.333h2.4Zm-2.734-2.733A2.736 2.736 0 0 0 .1 17.208h2.4c0-.182.151-.333.333-.333v-2.4ZM.1 17.208a2.736 2.736 0 0 0 2.733 2.734v-2.4a.336.336 0 0 1-.333-.334H.1Zm2.733 2.734a2.736 2.736 0 0 0 2.734-2.734h-2.4a.336.336 0 0 1-.334.334v2.4Zm-1.1-2.734c0-.61.49-1.1 1.1-1.1v-2.4a3.496 3.496 0 0 0-3.5 3.5h2.4Zm1.1-1.1c.61 0 1.1.49 1.1 1.1h2.4c0-1.936-1.564-3.5-3.5-3.5v2.4Zm1.1 1.1c0 .61-.49 1.1-1.1 1.1v2.4c1.936 0 3.5-1.564 3.5-3.5h-2.4Zm-1.1 1.1c-.61 0-1.1-.49-1.1-1.1h-2.4c0 1.936 1.564 3.5 3.5 3.5v-2.4Z" fill="#D92E15" mask="url(#a)"/></svg>
